X:1
T:Unser grosze Sünde
T:Thomas Stoltzer
T:Source : DDT 34---Leipzig---Breitkopf & Härtel---J.Wolf---1908. First print : Newe Deudsche Geistlige Gesenge---Wittemberg---G.Rhau---1544. Editor ; André Vierendeels (08/08/17).
T:Notes : Original clefs : C1, C3, C3, F4 Original note values have been halved Editorial accidentals above the staff  
T:Unser grosze Sünde
T:©
T:©
T:©
T:©
C:Thomas Stoltzer
Z:©
%%score [ 1 [ 2 3 ] 4 ]
L:1/8
Q:1/4=120
M:2/2
K:C
V:1 treble nm="Soprano" snm="S"
V:2 treble-8 nm="Tenor 1" snm="T 1"
V:3 treble-8 nm="Tenor 2" snm="T 2"
V:4 bass nm="Bass" snm="B"
V:1
 d4 d4 | B3 c d2 e2- | e2 d2 B2 d2- | d2 cB c4 | B3 c de d2- | dcBA G3 A | B2 c4 B2 | c4 z2 A2 | %8
w: Un- ser|gros- * se Sün-|* de und schwe-|* * * re|Mis- * * * *||* * se-|tat, un-|
 B2 d4 cB | A3 G A4 | G4 c3 B | A2 G2 A3 G/F/ | E3 F G2 A2- | A2 G4 F2 | G4 A2 B2 | G3 A Bc d2- | %16
w: ser gros- se _|Sün- * *|de und _|schwe- * re _ _|Mis- * * *|* * se-|tat Je- *|sum den wah- * ren|
 d2 c4 B2 | c8 | z4 c4- | c2 c2 A3 B | cA d4 c2 | d6 c2 |"^b" B3 A G4- | G2 A2 F4- | F2 D2 D4 | %25
w: _ Got- tes|Sohn|ans|_ Kreuz ge- *|schla- * * gen|.hat. Drum|wir dich, ar-|* mer Ju-|* * da,|
 z4 z2 d2 | B2 d3 cBA | G4 G2 c2- | c2 BA B4 | c4 A4 | z2 d4 cB | A2 c4 B2 | A2 d4 cB | %33
w: dar-|zu der _ _ _|_ Ju- *||den Schar|nicht _ _|feind- * lich|d¨r- * fen _|
 A3 B c2 B2- | BA d3 cBA | B2 G4 F2 | G3 A BG c2- | cB A4 G2 | A4 E4 | F8 | E4 z4 | G6 A2 | B4 c4 | %43
w: schel- * * *||* * ten,|Die _ _ _ Schuld|_ _ _ ist|un- *|ser|zwar.|Ky- *||
 A4 G4 | A6 GF | E4 D2 d2- |"^b" d2 cB A4 | z2 _B3 AGF | ED G4 F2 | G8 |] %50
w: ||* * ri-|* * * e,|e- * * *|* * lei- *|son.|
V:2
 z8 | g4 g4 | g4 g4 | a8 | g8 | d4 e4 | d4 d4 | c3 d e2 f2 | g4 z2 G2 | A6 A2 | B2 c3 d e2 | %11
w: |Un- ser|gros- se|Sün-|de|und schwe-|* re|Mis- * * se-|tat, und|schwe- re|Mis- * se- tat,|
 f2 g4 f2 | gfed e2 A2 | B2 d3 B c2 | d3 d d2 d2 | B4 G4 | g3 g g2 g2 | e6 c2- | c2 BA c4 | %19
w: und schwe- re|Mis- * * * * *|* * * se-|tat Je- sum den|wah- ren|Got- tes Sohn ans|Kreuz _|_ _ _ _|
 A4 a4- | a8 | f3 e d2 f2 |"^b" g2 d3 cBA | G2 F2 _B4- | B4 f4 | e4 d2 g2- | g2 fe d2 g2- | %27
w: ge- schla-||* * * gen|hat. Drum _ _ _|_ _ wir|_ dich,|zr- mer Ju-|* * * da, dar|
 gfed c4 | z4 g4 | e4 c3 d | ec f4 e2 | f4 e2 g2 | f2 d4 g2- | ge f2 g4 | z2 g2 d2 g2- | gfed c4 | %36
w: _ _ _ _ zu|der|Ju- * *||den Schar, der|Ju- * *|* * den Schar|nicht feind- *||
 d2 e4 dc | e8 | d2 c2 c4- |"^b""^b" c2 BA B4 | c6 d2 | e4 f4 | d4 c2 A2- | AG F2 E4 | D4 z4 | %45
w: lich dür- fen _|schel-|ten, die Schuld|_ ist _ _|un- ser|zwar. Ky-|ri- e, e-|* * * lei-|son,|
 z4 z2 d2- | d2 e2 f2 d2- |"^b" dcBA GF _B2- | B2 AG A4 | G8 |] %50
w: Ky-|* ri- e, e-||* * * lei-|son.|
V:3
 z8 | z8 | z8 | z8 | z8 | z8 | z8 | z8 | d4 d4 | d4 d4 | e8 | d4 d4 | c4 c4 | B6 A2 | G4 d4 | %15
w: ||||||||Un- ser|gros- se|Sün-|de und|schwe- re|Mis- se-|tat Je-|
 d2 d2 d2 d2 | e4 d4 | c4 c4 | e4 e4 | f8- | f4 e4 | d8 | z8 | d4 d4 | d4 d2 d2 | g8 | d4 d4 | %27
w: sum den wah- ren|Got- tes|Sohn ans|Kreuz ge-|schla-|* gen|hat.||Drum wir|dich, ar- mer|Ju-|da, dar-|
 e4 e4 | d4 d4 | c8 | z8 | z8 | d4 d2 d2 | d4 e4 | d8 | B4 z4 | z8 | c4 B4 | A4 G4- | G4 F4 | G8 | %41
w: zu der|Ju- den|Schar|||nicht feind- lich|dür- fen|schel-|ten,||die schuld|ist un-|* ser|zwar.|
 z8 | z4 c4- | c2 d2 e4 | f4 d4 | c4 d4 | z8 | d8 | d8 | d8 |] %50
w: |Ky-|||ri- e,||e-|lei-|son|
V:4
 z8 | z8 | z8 | z8 | z8 | G,4 G,4 | G,4 G,4 | A,8 | G,4 G,4 | F,4 F,4 | E,3 D, C,4 | z8 | z8 | z8 | %14
w: |||||Un- ser|gros- se|Sün-|de und|schwe- re|Mis- se- tat||||
 z8 | G,4 G,2 G,2 | G,4 G,4 | A,8 | A,8 | F,4 F,4 | A,4 A,4 |"^b" B,6 A,2 | G,8 | z8 | z8 | %25
w: |Je- sum sen|wah- ren|Got-|tes|Sohn ans|Kreuz ge-|schla- gen|hat.|||
 G,4 G,4 | G,4 G,2 G,2 | C8 | G,4 G,4 | A,4 A,4 | G,4 G,4 | F,4 z4 | z8 | z8 | G,4 G,2 G,2 | %35
w: Drum wir|dich ar- mer|Ju-|da, dar-|zu der|Ju- den|Schar|||nicht feind- lich|
 G,4 A,4 | G,8 | E,4 E,4 | F,4 C,4 | D,4 D,4 | C,8- | C,4 z4 |"^#" z8 | z8 | F,6 G,2 | %45
w: dür- fen|schel-|ten, die|Schuld ist|un- ser|zwar.|_|||Ky- *|
"^b" A,4 B,4 | G,4 F,4 | G,8 | D,8 | G,8 |] %50
w: |ri- e,|e-|lei|son.|

